X: 28626
T: Music In The Glen
R: reel
M: 4/4
K: Amajor
|:A2cA FAED|CEAc BABc|d2fd cdec|dBcA BAFE|
ABcA FAED|CEAc BABc|defg a2af|ecBc A2E2:|
|:c/B/A eA fAeA|cAeA dBBB|c/B/A ce fefg|aecA BAFA|
cAce fefg|a2 ga bgeg|a2 ga faec|dBcA BAEA:|

